public/formular-icons/greece/upper-delta.svg

<svg style="vertical-align:0" xmlns="http://www.w3.org/2000/svg" width="1.885ex" height="1.62ex" viewBox="0 -716 833 716" xmlns:xlink="http://www.w3.org/1999/xlink"><defs><path id="a" d="M51 0q-5 4-5 7 0 2 169 350t173 352q3 7 28 7 23 0 28-7 3-4 172-352T786 7q0-3-5-7H51Zm456 344L384 596 137 92l246-1h247q0 2-123 253Z"/></defs><g stroke="currentColor" fill="currentColor" stroke-width="0"><use data-c="394" xlink:href="#a" transform="scale(1 -1)"/></g></svg>

<svg style="vertical-align: 0" xmlns="http://www.w3.org/2000/svg" width="1.885ex" height="1.62ex" role="img" focusable="false" viewBox="0 -716 833 716" xmlns:xlink="http://www.w3.org/1999/xlink"><defs><path id="MJX-91-TEX-N-394" d="M51 0Q46 4 46 7Q46 9 215 357T388 709Q391 716 416 716Q439 716 444 709Q447 705 616 357T786 7Q786 4 781 0H51ZM507 344L384 596L137 92L383 91H630Q630 93 507 344Z"></path></defs><g stroke="currentColor" fill="currentColor" stroke-width="0" transform="scale(1,-1)"><g data-mml-node="math"><g data-mml-node="mi"><use data-c="394" xlink:href="#MJX-91-TEX-N-394"></use></g></g></g></svg>
